Yosa-Max-Dark/apps/symbolic/gitg-symbolic.svg

<?xml version="1.0" encoding="UTF-8"?>
<svg id="svg4" version="1.1" viewBox="0 0 24 24" xmlns="http://www.w3.org/2000/svg">
 <defs id="defs8">
  <style id="current-color-scheme" type="text/css">.ColorScheme-Text {
        color:#4d4d4d;
      }</style>
 </defs>
 <path id="circle4175" d="m7.6310301 3a2.1844855 2.25 0 0 0-2.1844851 2.2500004 2.1844855 2.25 0 0 0 1.4563234 2.1181645v9.2636711a2.1844855 2.25 0 0 0-1.4563234 2.118167 2.1844855 2.25 0 0 0 2.1844851 2.249997 2.1844855 2.25 0 0 0 2.1844858-2.249997 2.1844855 2.25 0 0 0-1.3965911-2.097657c0.2775701-1.789909 1.7627102-3.152345 3.5810762-3.152345 2.610249 0 4.725813-2.008525 5.034554-4.6083983a2.1844855 2.25 0 0 0 1.5189-2.1416016 2.1844855 2.25 0 0 0-2.184482-2.2500011 2.1844855 2.25 0 0 0-2.184486 2.2500011 2.1844855 2.25 0 0 0 1.39659 2.0976559c-0.27757 1.78991-1.76271 3.152345-3.581076 3.152345-1.431626 0-2.7166741 0.606655-3.6408092 1.579101v-6.2109381a2.1844855 2.25 0 0 0 1.4563241-2.1181645 2.1844855 2.25 0 0 0-2.1844858-2.2500004zm0 1.5a0.72816182 0.75000008 0 0 1 0.7281617 0.7500004 0.72816182 0.75000008 0 0 1-0.7281617 0.7500004 0.72816182 0.75000008 0 0 1-0.7281617-0.7500004 0.72816182 0.75000008 0 0 1 0.7281617-0.7500004zm8.7379429 1.5000008a0.72816182 0.75000008 0 0 1 0.72816 0.7500003 0.72816182 0.75000008 0 0 1-0.72816 0.75 0.72816182 0.75000008 0 0 1-0.728164-0.75 0.72816182 0.75000008 0 0 1 0.728164-0.7500003zm-8.7379429 11.999998a0.72816182 0.75000008 0 0 1 0.7281617 0.750004 0.72816182 0.75000008 0 0 1-0.7281617 0.75 0.72816182 0.75000008 0 0 1-0.7281617-0.75 0.72816182 0.75000008 0 0 1 0.7281617-0.750004z" style="fill:#dfdfdf"/>
</svg>

<?xml version="1.0" encoding="UTF-8" standalone="no"?>
<svg
   xmlns:dc="http://purl.org/dc/elements/1.1/"
   xmlns:cc="http://creativecommons.org/ns#"
   xmlns:rdf="http://www.w3.org/1999/02/22-rdf-syntax-ns#"
   xmlns:svg="http://www.w3.org/2000/svg"
   xmlns="http://www.w3.org/2000/svg"
   xmlns:sodipodi="http://sodipodi.sourceforge.net/DTD/sodipodi-0.dtd"
   xmlns:inkscape="http://www.inkscape.org/namespaces/inkscape"
   height="24"
   viewBox="0 0 24 24"
   width="24"
   version="1.1"
   id="svg4"
   sodipodi:docname="gitg-symbolic.svg"
   inkscape:version="0.92.2 2405546, 2018-03-11">
  <metadata
     id="metadata10">
    <rdf:RDF>
      <cc:Work
         rdf:about="">
        <dc:format>image/svg+xml</dc:format>
        <dc:type
           rdf:resource="http://purl.org/dc/dcmitype/StillImage" />
      </cc:Work>
    </rdf:RDF>
  </metadata>
  <defs
     id="defs8">
    <style
       type="text/css"
       id="current-color-scheme">
      .ColorScheme-Text {
        color:#4d4d4d;
      }
      </style>
  </defs>
  <sodipodi:namedview
     pagecolor="#ffffff"
     bordercolor="#666666"
     borderopacity="1"
     objecttolerance="10"
     gridtolerance="10"
     guidetolerance="10"
     inkscape:pageopacity="0"
     inkscape:pageshadow="2"
     inkscape:window-width="1366"
     inkscape:window-height="695"
     id="namedview6"
     showgrid="false"
     inkscape:zoom="9.8333333"
     inkscape:cx="12"
     inkscape:cy="12"
     inkscape:window-x="0"
     inkscape:window-y="0"
     inkscape:window-maximized="1"
     inkscape:current-layer="svg4" />
  <path
     style="opacity:1;vector-effect:none;fill:#dfdfdf;fill-opacity:1;stroke:none;stroke-width:0.90067601;stroke-linecap:butt;stroke-linejoin:miter;stroke-miterlimit:4;stroke-dasharray:none;stroke-dashoffset:0;stroke-opacity:1"
     d="M 7.6310301,3 A 2.1844855,2.25 0 0 0 5.446545,5.2500004 2.1844855,2.25 0 0 0 6.9028684,7.3681649 V 16.631836 A 2.1844855,2.25 0 0 0 5.446545,18.750003 2.1844855,2.25 0 0 0 7.6310301,21 2.1844855,2.25 0 0 0 9.8155159,18.750003 2.1844855,2.25 0 0 0 8.4189248,16.652346 c 0.2775701,-1.789909 1.7627102,-3.152345 3.5810762,-3.152345 2.610249,0 4.725813,-2.008525 5.034554,-4.6083983 A 2.1844855,2.25 0 0 0 18.553455,6.7500011 2.1844855,2.25 0 0 0 16.368973,4.5 2.1844855,2.25 0 0 0 14.184487,6.7500011 2.1844855,2.25 0 0 0 15.581077,8.847657 c -0.27757,1.78991 -1.76271,3.152345 -3.581076,3.152345 -1.431626,0 -2.7166741,0.606655 -3.6408092,1.579101 V 7.3681649 A 2.1844855,2.25 0 0 0 9.8155159,5.2500004 2.1844855,2.25 0 0 0 7.6310301,3 Z m 0,1.5 A 0.72816182,0.75000008 0 0 1 8.3591918,5.2500004 0.72816182,0.75000008 0 0 1 7.6310301,6.0000008 0.72816182,0.75000008 0 0 1 6.9028684,5.2500004 0.72816182,0.75000008 0 0 1 7.6310301,4.5 Z m 8.7379429,1.5000008 a 0.72816182,0.75000008 0 0 1 0.72816,0.7500003 0.72816182,0.75000008 0 0 1 -0.72816,0.75 0.72816182,0.75000008 0 0 1 -0.728164,-0.75 0.72816182,0.75000008 0 0 1 0.728164,-0.7500003 z M 7.6310301,17.999999 a 0.72816182,0.75000008 0 0 1 0.7281617,0.750004 0.72816182,0.75000008 0 0 1 -0.7281617,0.75 0.72816182,0.75000008 0 0 1 -0.7281617,-0.75 0.72816182,0.75000008 0 0 1 0.7281617,-0.750004 z"
     id="circle4175"
     inkscape:connector-curvature="0" />
</svg>
